packages/sources/assets/src/assets/ingenico.svg

<svg width="58" height="40" viewBox="0 0 58 40" fill="none" xmlns="http://www.w3.org/2000/svg">
<rect x="0.5" y="0.5" width="57" height="39" rx="3.5" fill="white" stroke="#F3F3F3"/>
<path fill-rule="evenodd" clip-rule="evenodd" d="M5.07451 14.8179C5.56981 14.8179 5.97775 14.4096 5.97775 13.9125C5.97775 13.4087 5.56981 13 5.07451 13C4.57102 13 4.16425 13.4087 4.16425 13.9125C4.16425 14.4096 4.57102 14.8179 5.07451 14.8179ZM38.65 14.8179C39.1527 14.8179 39.5599 14.4096 39.5599 13.9125C39.5599 13.4087 39.1527 13 38.65 13C38.1481 13 37.7475 13.4087 37.7475 13.9125C37.7475 14.4096 38.1481 14.8179 38.65 14.8179ZM7.84 13.3528H35.8775V14.471H7.84V13.3528ZM19.634 17.9346C19.5738 17.9288 19.5114 17.9216 19.4456 17.914C19.2231 17.8883 18.9609 17.858 18.6079 17.858C17.2842 17.858 16.7609 18.8287 16.7609 20.1476C16.7609 21.8344 17.4278 22.4183 18.464 22.4183C18.9367 22.4183 19.3298 22.2232 19.634 22.0699V17.9346ZM18.1504 26.554C17.154 26.554 16.2398 26.3431 15.6767 26.1742L15.9173 24.8299C16.5191 24.9676 17.3954 25.101 17.8856 25.101C18.9367 25.101 19.6433 24.9172 19.6433 23.6758C19.6623 23.6558 19.6515 23.4492 19.646 23.3437V23.3437V23.3437C19.6445 23.3149 19.6433 23.2936 19.6433 23.2858C19.3216 23.5471 18.8645 23.7524 18.3825 23.7524C16.8743 23.7524 15.1958 23.3382 15.1958 20.1374C15.1958 17.7246 16.7453 16.4406 18.6231 16.4406C19.3703 16.4406 20.1815 16.5493 21.2092 16.7183V23.8537C21.2092 25.8367 19.5482 26.554 18.1504 26.554ZM24.2843 19.37C24.3565 18.1795 25.055 17.6898 25.7293 17.6898C26.4024 17.6898 26.9176 18.2812 26.9083 19.37H24.2843ZM26.3318 22.3417C25.1509 22.3417 24.2602 22.1211 24.2508 20.577H28.5459V19.9524C28.5459 17.7403 27.7752 16.3905 25.874 16.3905C24.0195 16.3905 22.6768 17.3362 22.6768 20.214C22.6768 22.9905 23.9864 23.7524 26.0421 23.7524C26.8365 23.7524 27.833 23.6597 28.3536 23.4814L28.1126 22.1563C27.5919 22.2744 26.7885 22.3417 26.3318 22.3417ZM37.8591 23.6335V16.5591H39.4409V23.6335H37.8591ZM44.3615 17.7813C45.0206 17.7813 45.4309 17.9088 45.8627 18.0872L46.3213 16.8298C45.888 16.5751 45.2944 16.38 44.3615 16.38C42.277 16.38 40.9576 17.7911 40.9576 20.0357C40.9576 22.6788 41.9549 23.7524 44.5971 23.7524C45.2209 23.7524 45.6293 23.6617 46.0658 23.5647L46.0662 23.5646L46.0663 23.5646C46.1293 23.5506 46.1929 23.5364 46.2577 23.5225L46.0421 22.1978C45.9284 22.2154 45.8196 22.2353 45.7114 22.2551C45.406 22.3111 45.1048 22.3663 44.7083 22.3663C42.9735 22.3663 42.5812 21.6572 42.5812 20.0623C42.5812 18.3993 43.3507 17.7813 44.3615 17.7813ZM50.3761 17.7403C49.0833 17.7403 48.7385 18.8807 48.7385 20.1127C48.7385 21.4312 49.1316 22.4183 50.3991 22.4183C51.6834 22.4183 51.9962 21.3792 51.9962 20.0959C51.9962 18.8897 51.6834 17.7403 50.3761 17.7403ZM50.3036 23.7923C48.2799 23.7923 47.1493 22.4328 47.1493 20.1636C47.1493 17.7813 48.4585 16.38 50.4089 16.38C52.6007 16.38 53.6194 17.7403 53.6194 20.0959C53.6194 22.5361 52.199 23.7923 50.3036 23.7923ZM11.6312 16.3651C10.6717 16.3651 9.93572 16.9208 9.48213 17.2632L9.43197 17.301V17.2842C9.42451 17.2966 9.41365 17.3066 9.40208 17.3173C9.39612 17.3228 9.38997 17.3284 9.38401 17.3347C9.23151 16.7676 8.82318 16.6021 8.45503 16.5591H7.84234V23.6335H9.43197V18.4497L9.47454 18.4255C9.80676 18.2356 10.4958 17.842 11.1265 17.842C12.0165 17.842 12.2002 18.307 12.2002 19.3352V23.6335H13.7746V19.1408C13.7746 17.6898 13.6459 16.3651 11.6312 16.3651ZM31.5744 17.2786C32.021 16.9377 32.771 16.3651 33.7438 16.3651C35.7523 16.3651 35.8876 17.6898 35.8876 19.1408V23.6335H34.3077V19.3352C34.3077 18.307 34.1299 17.842 33.2395 17.842C32.6076 17.842 31.9184 18.2362 31.5868 18.4259L31.545 18.4497V23.6335H29.9557V16.5591H30.5606C30.9362 16.6021 31.3375 16.7676 31.4962 17.3347C31.5052 17.3219 31.5162 17.3116 31.5283 17.3002L31.5284 17.3002L31.5284 17.3001C31.5337 17.2952 31.5393 17.2899 31.545 17.2842V17.301L31.5744 17.2786ZM4.28359 16.5591H5.85763V23.6335H4.28359V16.5591Z" fill="#263779"/>
</svg>

<svg width="58" height="40" fill="none" xmlns="http://www.w3.org/2000/svg"><rect x=".5" y=".5" width="57" height="39" rx="3.5" fill="#fff" stroke="#F3F3F3"/><path fill-rule="evenodd" clip-rule="evenodd" d="M5.075 14.818a.909.909 0 0 0 0-1.818.91.91 0 1 0 0 1.818Zm33.575 0a.91.91 0 1 0 0-1.818.905.905 0 0 0-.902.912c0 .498.4.906.902.906ZM7.84 13.353h28.037v1.118H7.84v-1.118Zm11.794 4.582-.188-.021a6.712 6.712 0 0 0-.838-.056c-1.324 0-1.847.97-1.847 2.29 0 1.686.667 2.27 1.703 2.27.473 0 .866-.195 1.17-.348v-4.135Zm-1.484 8.619c-.996 0-1.91-.21-2.473-.38l.24-1.344c.602.138 1.478.271 1.969.271 1.05 0 1.757-.184 1.757-1.425.02-.02.008-.227.003-.332l-.003-.058a2.058 2.058 0 0 1-1.26.466c-1.509 0-3.187-.414-3.187-3.615 0-2.412 1.55-3.696 3.427-3.696.747 0 1.558.108 2.586.277v7.136c0 1.983-1.66 2.7-3.059 2.7Zm6.134-7.184c.073-1.19.771-1.68 1.445-1.68.673 0 1.189.591 1.18 1.68h-2.625Zm2.048 2.972c-1.181 0-2.072-.22-2.081-1.765h4.295v-.625c0-2.212-.77-3.562-2.672-3.562-1.854 0-3.197.946-3.197 3.824 0 2.777 1.31 3.538 3.365 3.538.794 0 1.791-.092 2.312-.27l-.241-1.326c-.521.118-1.325.186-1.781.186Zm11.527 1.292v-7.075h1.582v7.075h-1.582Zm6.502-5.853c.66 0 1.07.128 1.502.306l.458-1.257c-.433-.255-1.027-.45-1.96-.45-2.084 0-3.403 1.411-3.403 3.656 0 2.643.997 3.716 3.64 3.716.623 0 1.031-.09 1.468-.187h.001l.19-.043-.215-1.324a9.819 9.819 0 0 0-.33.057 5.16 5.16 0 0 1-1.004.111c-1.734 0-2.127-.709-2.127-2.304 0-1.663.77-2.28 1.78-2.28Zm6.015-.04c-1.293 0-1.637 1.14-1.637 2.372 0 1.318.393 2.305 1.66 2.305 1.284 0 1.597-1.039 1.597-2.322 0-1.206-.313-2.356-1.62-2.356Zm-.072 6.051c-2.024 0-3.155-1.36-3.155-3.628 0-2.383 1.31-3.784 3.26-3.784 2.192 0 3.21 1.36 3.21 3.716 0 2.44-1.42 3.696-3.315 3.696ZM11.63 16.365c-.96 0-1.695.556-2.149.898l-.05.038v-.017a.117.117 0 0 1-.03.033l-.018.018c-.152-.567-.56-.733-.929-.776h-.613v7.075h1.59V18.45l.043-.024c.332-.19 1.02-.584 1.652-.584.89 0 1.073.465 1.073 1.493v4.299h1.575V19.14c0-1.451-.13-2.776-2.144-2.776Zm19.943.914c.447-.341 1.197-.914 2.17-.914 2.008 0 2.144 1.325 2.144 2.776v4.493h-1.58v-4.299c0-1.028-.178-1.493-1.069-1.493-.631 0-1.32.394-1.652.584l-.042.024v5.184h-1.59v-7.075h.606c.375.043.776.209.935.776.01-.013.02-.023.032-.035a.585.585 0 0 0 .017-.016v.017l.03-.022Zm-27.29-.72h1.574v7.075H4.284v-7.075Z" fill="#263779"/></svg>
